pix_core/i/emojicategorysymbols.svg

<svg preserveAspectRatio="xMinYMid meet" viewBox="0 0 512 512" xmlns="http://www.w3.org/2000/svg"><path d="m224 445.3v-121.8l-94.3 77.1c26.1 22.8 58.5 38.7 94.3 44.7zm-134.8-94.2 134.8-110.3v-174.1c-90.8 15.2-160 94.2-160 189.3 0 34.6 9.2 67.1 25.2 95.1zm293.1 49.5-94.3-77.1v121.8c35.7-6 68.1-21.9 94.3-44.7zm40.6-49.5c16-28 25.2-60.5 25.2-95.1 0-95.1-69.2-174.1-160-189.3v174.1l134.7 110.3zm-422.9-95.1a256 256 0 1 1 512 0 256 256 0 1 1 -512 0z" fill="#fff"/></svg>

<svg xmlns="http://www.w3.org/2000/svg" viewBox="0 0 512 512" preserveAspectRatio="xMinYMid meet"><!--!Font Awesome Free 6.5.2 by @fontawesome - https://fontawesome.com License - https://fontawesome.com/license/free Copyright 2024 Fonticons, Inc.--><path fill="#fff" d="M224 445.3V323.5l-94.3 77.1c26.1 22.8 58.5 38.7 94.3 44.7zM89.2 351.1L224 240.8V66.7C133.2 81.9 64 160.9 64 256c0 34.6 9.2 67.1 25.2 95.1zm293.1 49.5L288 323.5V445.3c35.7-6 68.1-21.9 94.3-44.7zm40.6-49.5c16-28 25.2-60.5 25.2-95.1c0-95.1-69.2-174.1-160-189.3V240.8L422.8 351.1zM0 256a256 256 0 1 1 512 0A256 256 0 1 1 0 256z"/></svg>
